assets/Keyboard/Flat/keyboard_flat.svg

<svg width="32" height="32" viewBox="0 0 32 32" fill="none" xmlns="http://www.w3.org/2000/svg">
<path d="M2 14C2 12.3431 3.34315 11 5 11H27C28.6569 11 30 12.3431 30 14V25.25C30 26.9069 28.6569 28.25 27 28.25H5C3.34315 28.25 2 26.9069 2 25.25V14Z" fill="#CDC4D6"/>
<path d="M4 13.5C4 13.2239 4.22386 13 4.5 13H5.5C5.77614 13 6 13.2239 6 13.5V14C6 14.2761 5.77614 14.5 5.5 14.5H4.5C4.22386 14.5 4 14.2761 4 14V13.5ZM4 17.5C4 17.2239 4.22386 17 4.5 17H5.5C5.77614 17 6 17.2239 6 17.5V18.5C6 18.7761 5.77614 19 5.5 19H4.5C4.22386 19 4 18.7761 4 18.5V17.5ZM6.5 20C6.22386 20 6 20.2239 6 20.5V21.5C6 21.7761 6.22386 22 6.5 22H7.5C7.77614 22 8 21.7761 8 21.5V20.5C8 20.2239 7.77614 20 7.5 20H6.5ZM7.5 23C7.22386 23 7 23.2239 7 23.5V24.5C7 24.7761 7.22386 25 7.5 25H8.5C8.77614 25 9 24.7761 9 24.5V23.5C9 23.2239 8.77614 23 8.5 23H7.5ZM23.5 23C23.2239 23 23 23.2239 23 23.5V24.5C23 24.7761 23.2239 25 23.5 25H24.5C24.7761 25 25 24.7761 25 24.5V23.5C25 23.2239 24.7761 23 24.5 23H23.5ZM10 23.5C10 23.2239 10.2239 23 10.5 23H21.5C21.7761 23 22 23.2239 22 23.5V24.5C22 24.7761 21.7761 25 21.5 25H10.5C10.2239 25 10 24.7761 10 24.5V23.5ZM9 20.5C9 20.2239 9.22386 20 9.5 20H10.5C10.7761 20 11 20.2239 11 20.5V21.5C11 21.7761 10.7761 22 10.5 22H9.5C9.22386 22 9 21.7761 9 21.5V20.5ZM12.5 20C12.2239 20 12 20.2239 12 20.5V21.5C12 21.7761 12.2239 22 12.5 22H13.5C13.7761 22 14 21.7761 14 21.5V20.5C14 20.2239 13.7761 20 13.5 20H12.5ZM15 20.5C15 20.2239 15.2239 20 15.5 20H16.5C16.7761 20 17 20.2239 17 20.5V21.5C17 21.7761 16.7761 22 16.5 22H15.5C15.2239 22 15 21.7761 15 21.5V20.5ZM18.5 20C18.2239 20 18 20.2239 18 20.5V21.5C18 21.7761 18.2239 22 18.5 22H19.5C19.7761 22 20 21.7761 20 21.5V20.5C20 20.2239 19.7761 20 19.5 20H18.5ZM21 20.5C21 20.2239 21.2239 20 21.5 20H22.5C22.7761 20 23 20.2239 23 20.5V21.5C23 21.7761 22.7761 22 22.5 22H21.5C21.2239 22 21 21.7761 21 21.5V20.5ZM24.5 20C24.2239 20 24 20.2239 24 20.5V21.5C24 21.7761 24.2239 22 24.5 22H25.5C25.7761 22 26 21.7761 26 21.5V20.5C26 20.2239 25.7761 20 25.5 20H24.5ZM7.5 17C7.22386 17 7 17.2239 7 17.5V18.5C7 18.7761 7.22386 19 7.5 19H8.5C8.77614 19 9 18.7761 9 18.5V17.5C9 17.2239 8.77614 17 8.5 17H7.5ZM10 17.5C10 17.2239 10.2239 17 10.5 17H11.5C11.7761 17 12 17.2239 12 17.5V18.5C12 18.7761 11.7761 19 11.5 19H10.5C10.2239 19 10 18.7761 10 18.5V17.5ZM13.5 17C13.2239 17 13 17.2239 13 17.5V18.5C13 18.7761 13.2239 19 13.5 19H14.5C14.7761 19 15 18.7761 15 18.5V17.5C15 17.2239 14.7761 17 14.5 17H13.5ZM16 17.5C16 17.2239 16.2239 17 16.5 17H17.5C17.7761 17 18 17.2239 18 17.5V18.5C18 18.7761 17.7761 19 17.5 19H16.5C16.2239 19 16 18.7761 16 18.5V17.5ZM19.5 17C19.2239 17 19 17.2239 19 17.5V18.5C19 18.7761 19.2239 19 19.5 19H20.5C20.7761 19 21 18.7761 21 18.5V17.5C21 17.2239 20.7761 17 20.5 17H19.5ZM22 17.5C22 17.2239 22.2239 17 22.5 17H23.5C23.7761 17 24 17.2239 24 17.5V18.5C24 18.7761 23.7761 19 23.5 19H22.5C22.2239 19 22 18.7761 22 18.5V17.5ZM25.5 17C25.2239 17 25 17.2239 25 17.5V18.5C25 18.7761 25.2239 19 25.5 19H26.5C26.7761 19 27 18.7761 27 18.5V17.5C27 17.2239 26.7761 17 26.5 17H25.5ZM10.5 13C10.2239 13 10 13.2239 10 13.5V14C10 14.2761 10.2239 14.5 10.5 14.5H11.5C11.7761 14.5 12 14.2761 12 14V13.5C12 13.2239 11.7761 13 11.5 13H10.5ZM13 13.5C13 13.2239 13.2239 13 13.5 13H14.5C14.7761 13 15 13.2239 15 13.5V14C15 14.2761 14.7761 14.5 14.5 14.5H13.5C13.2239 14.5 13 14.2761 13 14V13.5ZM16.5 13C16.2239 13 16 13.2239 16 13.5V14C16 14.2761 16.2239 14.5 16.5 14.5H17.5C17.7761 14.5 18 14.2761 18 14V13.5C18 13.2239 17.7761 13 17.5 13H16.5ZM19 13.5C19 13.2239 19.2239 13 19.5 13H20.5C20.7761 13 21 13.2239 21 13.5V14C21 14.2761 20.7761 14.5 20.5 14.5H19.5C19.2239 14.5 19 14.2761 19 14V13.5ZM22.5 13C22.2239 13 22 13.2239 22 13.5V14C22 14.2761 22.2239 14.5 22.5 14.5H23.5C23.7761 14.5 24 14.2761 24 14V13.5C24 13.2239 23.7761 13 23.5 13H22.5ZM25 13.5C25 13.2239 25.2239 13 25.5 13H26.5C26.7761 13 27 13.2239 27 13.5V14C27 14.2761 26.7761 14.5 26.5 14.5H25.5C25.2239 14.5 25 14.2761 25 14V13.5ZM2 27V25C2 26.6569 3.34315 28 5 28H27C28.6569 28 30 26.6569 30 25V27C30 28.6569 28.6569 30 27 30H5C3.34315 30 2 28.6569 2 27Z" fill="#998EA4"/>
</svg>

<svg xmlns="http://www.w3.org/2000/svg" width="32" height="32" fill="none"><path fill="#CDC4D6" d="M2 14a3 3 0 0 1 3-3h22a3 3 0 0 1 3 3v11.25a3 3 0 0 1-3 3H5a3 3 0 0 1-3-3V14Z"/><path fill="#998EA4" d="M4 13.5a.5.5 0 0 1 .5-.5h1a.5.5 0 0 1 .5.5v.5a.5.5 0 0 1-.5.5h-1A.5.5 0 0 1 4 14v-.5Zm0 4a.5.5 0 0 1 .5-.5h1a.5.5 0 0 1 .5.5v1a.5.5 0 0 1-.5.5h-1a.5.5 0 0 1-.5-.5v-1ZM6.5 20a.5.5 0 0 0-.5.5v1a.5.5 0 0 0 .5.5h1a.5.5 0 0 0 .5-.5v-1a.5.5 0 0 0-.5-.5h-1Zm1 3a.5.5 0 0 0-.5.5v1a.5.5 0 0 0 .5.5h1a.5.5 0 0 0 .5-.5v-1a.5.5 0 0 0-.5-.5h-1Zm16 0a.5.5 0 0 0-.5.5v1a.5.5 0 0 0 .5.5h1a.5.5 0 0 0 .5-.5v-1a.5.5 0 0 0-.5-.5h-1Zm-13.5.5a.5.5 0 0 1 .5-.5h11a.5.5 0 0 1 .5.5v1a.5.5 0 0 1-.5.5h-11a.5.5 0 0 1-.5-.5v-1Zm-1-3a.5.5 0 0 1 .5-.5h1a.5.5 0 0 1 .5.5v1a.5.5 0 0 1-.5.5h-1a.5.5 0 0 1-.5-.5v-1Zm3.5-.5a.5.5 0 0 0-.5.5v1a.5.5 0 0 0 .5.5h1a.5.5 0 0 0 .5-.5v-1a.5.5 0 0 0-.5-.5h-1Zm2.5.5a.5.5 0 0 1 .5-.5h1a.5.5 0 0 1 .5.5v1a.5.5 0 0 1-.5.5h-1a.5.5 0 0 1-.5-.5v-1Zm3.5-.5a.5.5 0 0 0-.5.5v1a.5.5 0 0 0 .5.5h1a.5.5 0 0 0 .5-.5v-1a.5.5 0 0 0-.5-.5h-1Zm2.5.5a.5.5 0 0 1 .5-.5h1a.5.5 0 0 1 .5.5v1a.5.5 0 0 1-.5.5h-1a.5.5 0 0 1-.5-.5v-1Zm3.5-.5a.5.5 0 0 0-.5.5v1a.5.5 0 0 0 .5.5h1a.5.5 0 0 0 .5-.5v-1a.5.5 0 0 0-.5-.5h-1Zm-17-3a.5.5 0 0 0-.5.5v1a.5.5 0 0 0 .5.5h1a.5.5 0 0 0 .5-.5v-1a.5.5 0 0 0-.5-.5h-1Zm2.5.5a.5.5 0 0 1 .5-.5h1a.5.5 0 0 1 .5.5v1a.5.5 0 0 1-.5.5h-1a.5.5 0 0 1-.5-.5v-1Zm3.5-.5a.5.5 0 0 0-.5.5v1a.5.5 0 0 0 .5.5h1a.5.5 0 0 0 .5-.5v-1a.5.5 0 0 0-.5-.5h-1Zm2.5.5a.5.5 0 0 1 .5-.5h1a.5.5 0 0 1 .5.5v1a.5.5 0 0 1-.5.5h-1a.5.5 0 0 1-.5-.5v-1Zm3.5-.5a.5.5 0 0 0-.5.5v1a.5.5 0 0 0 .5.5h1a.5.5 0 0 0 .5-.5v-1a.5.5 0 0 0-.5-.5h-1Zm2.5.5a.5.5 0 0 1 .5-.5h1a.5.5 0 0 1 .5.5v1a.5.5 0 0 1-.5.5h-1a.5.5 0 0 1-.5-.5v-1Zm3.5-.5a.5.5 0 0 0-.5.5v1a.5.5 0 0 0 .5.5h1a.5.5 0 0 0 .5-.5v-1a.5.5 0 0 0-.5-.5h-1Zm-15-4a.5.5 0 0 0-.5.5v.5a.5.5 0 0 0 .5.5h1a.5.5 0 0 0 .5-.5v-.5a.5.5 0 0 0-.5-.5h-1Zm2.5.5a.5.5 0 0 1 .5-.5h1a.5.5 0 0 1 .5.5v.5a.5.5 0 0 1-.5.5h-1a.5.5 0 0 1-.5-.5v-.5Zm3.5-.5a.5.5 0 0 0-.5.5v.5a.5.5 0 0 0 .5.5h1a.5.5 0 0 0 .5-.5v-.5a.5.5 0 0 0-.5-.5h-1Zm2.5.5a.5.5 0 0 1 .5-.5h1a.5.5 0 0 1 .5.5v.5a.5.5 0 0 1-.5.5h-1a.5.5 0 0 1-.5-.5v-.5Zm3.5-.5a.5.5 0 0 0-.5.5v.5a.5.5 0 0 0 .5.5h1a.5.5 0 0 0 .5-.5v-.5a.5.5 0 0 0-.5-.5h-1Zm2.5.5a.5.5 0 0 1 .5-.5h1a.5.5 0 0 1 .5.5v.5a.5.5 0 0 1-.5.5h-1a.5.5 0 0 1-.5-.5v-.5ZM2 27v-2a3 3 0 0 0 3 3h22a3 3 0 0 0 3-3v2a3 3 0 0 1-3 3H5a3 3 0 0 1-3-3Z"/></svg>
